svgs/screen_recorder.svg

<svg width="24" height="24" viewBox="0 0 24 24" fill="none" xmlns="http://www.w3.org/2000/svg">
<path d="M4 19C3.45 19 2.97933 18.8043 2.588 18.413C2.196 18.021 2 17.55 2 17V6.98062C2 6.43062 2.196 5.95995 2.588 5.56862C2.97933 5.17662 3.45 4.98062 4 4.98062H16C16.55 4.98062 17.021 5.17662 17.413 5.56862C17.8043 5.95995 18 6.43062 18 6.98062V10.5L22 6.5V17.5L18 13.5V17C18 17.55 17.8043 18.021 17.413 18.413C17.021 18.8043 16.55 19 16 19H4Z" fill="#FFF1C0"/>
</svg>

<svg xmlns="http://www.w3.org/2000/svg" viewBox="0 0 24 24"><path d="M4 19.01c-.55 0-1.02-.196-1.412-.587A1.927 1.927 0 0 1 2 17.01V6.99c0-.55.196-1.02.588-1.411A1.923 1.923 0 0 1 4 4.99h12c.55 0 1.021.196 1.413.588.391.391.587.862.587 1.412v3.52l4-4v11l-4-4v3.5a1.93 1.93 0 0 1-.587 1.413A1.928 1.928 0 0 1 16 19.01z"/></svg>
